X:272
T:Opera
Z: id:dc-reel-253
M:C
L:1/8
K:D Major
FE|D2DE FDFA|DEFD EDB,D|A,DDE FDFA|BFAF E2:|!
FA|d2dc dAFA|defd egfe|dfed BAFA|BFAF E2:|!
fg|a2fa g2eg|fdec dcBA|a2fa g2eg|fdec d2:|!
Bc|defd efge|faec dcBA|defd efge|fdec d2Bc|!
defd efge|faec dcBA|a2fa g2eg|fdec d2|]!

